svg/set/BIG/WM.svg

<?xml version="1.0" encoding="UTF-8" standalone="no"?>
<svg
   width="1000"
   height="1000"
   viewBox="0 0 1000 1000"
   version="1.1"
   xml:space="preserve"
   style="clip-rule:evenodd;fill-rule:evenodd;stroke-linejoin:round;stroke-miterlimit:2"
   id="svg13"
   xmlns="http://www.w3.org/2000/svg"
   xmlns:svg="http://www.w3.org/2000/svg"><defs
   id="defs13" />
    <g
   transform="translate(-4831.9967)"
   id="g13">
        <g
   id="WM"
   transform="translate(-0.333333)">
            <rect
   x="4832.3301"
   y="0"
   width="1000"
   height="1000"
   style="fill:none"
   id="rect1" />
            <g
   transform="translate(4828.23,-6.56838)"
   id="g1">
                <path
   d="M 60.422,232.606 H 475.029 V 770.534 H 59.538 c 0,0 -39.339,-72.854 -53.925,-141.002 h 79.562 c 0,0 -19.007,-54.002 -17.681,-135.333 1.326,-81.33 19.007,-121.553 19.007,-121.553 H 4.729 c 0,0 22.542,-88.69 55.693,-140.04 z M 284.58,569.005 v 51.018 c 0,0 -6.112,38.158 -42.087,42.39 h -196.8 c 0,0 12.344,43.849 34.441,77.9 h 385.068 c 0,0 -5.606,-36.97 7.296,-79.904 0,0 -66,-18.736 -98.566,-97.081 1.048,-0.215 2.015,-0.431 2.891,-0.65 18.306,-4.577 33.053,-9.662 33.053,-9.662 l 65.089,-27.968 v -54.362 c 0,0 -77.53,-29.339 -95.464,-30.204 -0.025,0 -0.446,-0.03 -5.904,-0.487 0.343,-0.524 0.536,-0.788 0.536,-0.788 0,0 24.468,-69.302 95.663,-96.417 0,0 -6.465,-52.219 -6.13,-80.672 H 80.722 c 0,0 -30.461,56.906 -34.813,80.338 h 193.97 c 0,0 32.985,-0.712 44.701,40.503 v 52.235 c -19.677,4.14 -56.057,18.43 -58.276,67.56 -0.382,8.443 0.492,15.838 2.313,22.316 -2.135,-6.454 -3.703,-14.037 -4.28,-22.905 -2.859,-43.919 28.588,-56.14 28.588,-56.14 V 385.99 c -3.812,-9.529 -13.046,-13.818 -13.046,-13.818 H 130.472 c -46.064,152.901 0.476,258.247 0.476,258.247 h 108.931 c 12.207,-2.859 14.475,-17.629 14.475,-17.629 v -54.318 c 0,0 -7.986,-3.643 -15.752,-13.98 12.609,15.537 32.209,21.904 45.978,24.513 z"
   id="path1" />
            </g>
            <g
   transform="matrix(1.25175,0,0,1.25757,4709.43,-126.361)"
   id="g2">
                <path
   d="m 173.75,620.4 c -14.278,-39.405 -22.065,-81.908 -22.065,-126.216 0,-44.457 7.839,-87.098 22.21,-126.615 h 36.011 c -15.641,38.642 -24.252,80.842 -24.252,125.029 0,45.246 9.029,88.41 25.389,127.802 z m 77.502,0 c -18.251,-38.49 -28.457,-81.477 -28.457,-126.814 0,-45.024 10.066,-87.731 28.081,-126.017 h 18.127 c -19.197,38.062 -30.005,81.027 -30.005,126.485 0,45.403 10.782,88.318 29.934,126.346 z m 61.792,63.879 c 51.921,56.695 126.7,92.295 209.765,92.295 156.64,0 283.812,-126.593 283.812,-282.52 0,-155.927 -127.172,-282.52 -283.812,-282.52 -82.997,0 -157.721,35.541 -209.638,92.156 h -21.579 c 55.047,-66.096 138.218,-108.235 231.216,-108.235 165.581,0 300.012,133.588 300.012,298.131 0,164.543 -134.431,298.131 -300.012,298.131 -92.624,0 -175.5,-41.8 -230.551,-107.438 z m -66.838,0 c 60.88,86.681 161.888,143.419 276.105,143.419 185.806,0 336.657,-150.153 336.657,-335.1 0,-184.947 -150.851,-335.1 -336.657,-335.1 -115.43,0 -217.37,57.95 -278.032,146.192 H 204.348 C 269.201,195.66 387.5,123.305 522.565,123.305 c 204.693,0 370.879,166.185 370.879,370.879 0,204.694 -166.186,370.879 -370.879,370.879 -135.232,0 -253.655,-72.533 -318.457,-180.784 z"
   id="path2" />
            </g>
            <g
   transform="translate(0.333333)"
   id="g3">
                <path
   d="m 5308.88,401.742 c 0,0 -21.51,-105.75 -14.16,-146.622 7.35,-40.872 20.28,-66.595 68.65,-72.126 48.37,-5.531 65.77,39.428 68.65,71.445 2.88,32.016 -19.6,147.303 -19.6,147.303 h -29.97 c 0,0 23.33,-127.548 17.8,-147.303 -5.54,-19.755 -6.42,-37.677 -36.29,-39.275 -29.87,-1.597 -36.19,27.695 -37.46,39.956 -1.27,12.262 9.63,117.493 19.17,146.622 z"
   id="path3" />
            </g>
            <g
   transform="matrix(1,0,0,-1,0.333333,989.135)"
   id="g4">
                <path
   d="m 5308.88,401.742 c 0,0 -21.51,-105.75 -14.16,-146.622 7.35,-40.872 20.28,-66.595 68.65,-72.126 48.37,-5.531 65.77,39.428 68.65,71.445 2.88,32.016 -19.6,147.303 -19.6,147.303 h -29.97 c 0,0 23.33,-127.548 17.8,-147.303 -5.54,-19.755 -6.42,-37.677 -36.29,-39.275 -29.87,-1.597 -36.19,27.695 -37.46,39.956 -1.27,12.262 9.63,117.493 19.17,146.622 z"
   id="path4" />
            </g>
            <g
   transform="rotate(90,5364.095,495.415)"
   id="g5">
                <path
   d="m 5308.88,401.742 c 0,0 -21.51,-105.75 -14.16,-146.622 7.35,-40.872 20.28,-66.595 68.65,-72.126 48.37,-5.531 65.77,39.428 68.65,71.445 2.88,32.016 -19.6,147.303 -19.6,147.303 h -29.97 c 0,0 23.33,-127.548 17.8,-147.303 -5.54,-19.755 -6.42,-37.677 -36.29,-39.275 -29.87,-1.597 -36.19,27.695 -37.46,39.956 -1.27,12.262 9.63,117.493 19.17,146.622 z"
   id="path5" />
            </g>
            <g
   transform="matrix(0,1,1,0,4866.2,-4867.73)"
   id="g6">
                <path
   d="m 5308.88,401.742 c 0,0 -21.51,-105.75 -14.16,-146.622 7.35,-40.872 20.28,-66.595 68.65,-72.126 48.37,-5.531 65.77,39.428 68.65,71.445 2.88,32.016 -19.6,147.303 -19.6,147.303 h -29.97 c 0,0 23.33,-127.548 17.8,-147.303 -5.54,-19.755 -6.42,-37.677 -36.29,-39.275 -29.87,-1.597 -36.19,27.695 -37.46,39.956 -1.27,12.262 9.63,117.493 19.17,146.622 z"
   id="path6" />
            </g>
            <g
   transform="matrix(0.929883,0,0,0.919548,4802.39,-15.9039)"
   id="g7">
                <path
   d="m 784.375,589.056 c -13.521,74.66 -72.357,133.63 -146.948,147.35 -6.083,-44.093 -13.992,-81.442 -13.992,-81.442 -20.679,7.383 -37.801,-0.244 -37.801,-0.244 -0.974,7.269 -8.771,41.17 -14.637,81.715 -74.395,-13.616 -133.148,-72.237 -146.959,-146.564 22.396,-3.255 66.093,-10.257 79.713,-17.11 l -0.025,-0.01 0.025,-0.003 c 0,0 -7.542,-17.314 -0.241,-38.226 0,0 -36.113,-7.821 -79.078,-13.943 14.496,-73.318 72.803,-130.967 146.465,-144.491 5.795,38.931 13.161,71.047 14.106,78.098 0,0 17.122,-7.626 37.801,-0.244 0,0 7.507,-35.447 13.518,-78.043 74.512,13.231 133.512,71.575 147.718,145.748 -43.166,6.131 -79.536,14.007 -79.536,14.007 7.3,20.912 -0.241,38.226 -0.241,38.226 0.333,0.046 0.722,0.106 1.166,0.181 10.433,2.805 76.277,14.52 78.946,14.995 z M 603.686,487.786 c -36.635,0 -66.379,30.131 -66.379,67.244 0,37.113 29.744,67.245 66.379,67.245 36.636,0 66.38,-30.132 66.38,-67.245 0,-37.113 -29.744,-67.244 -66.38,-67.244 z"
   id="path7" />
            </g>
            <g
   transform="matrix(1.11791,0,0,1.11791,4750.39,-58.4753)"
   id="g8">
                <path
   d="m 549.158,411.445 c 46.15,0 83.617,37.468 83.617,83.617 0,46.149 -37.467,83.616 -83.617,83.616 -46.149,0 -83.616,-37.467 -83.616,-83.616 0,-46.149 37.467,-83.617 83.616,-83.617 z m -0.489,27.87 c -30.474,0 -55.214,24.785 -55.214,55.313 0,30.528 24.74,55.313 55.214,55.313 30.474,0 55.215,-24.785 55.215,-55.313 0,-30.528 -24.741,-55.313 -55.215,-55.313 z"
   id="path8" />
            </g>
            <g
   transform="translate(0.333333)"
   id="g9">
                <path
   d="m 5202.82,559.044 c 0,0 -2.06,-4.252 -1.69,-4.665 0.37,-0.413 4.5,0.66 4.5,0.66 z"
   id="path9" />
            </g>
            <g
   transform="translate(0.333333)"
   id="g10">
                <path
   d="m 5267,477.737 c 0,0 2.43,0.768 2.8,1.108 0.38,0.341 1.85,-3.789 1.85,-3.789 l -4.61,-0.192 z"
   id="path10" />
            </g>
            <g
   transform="translate(0.333333)"
   id="g11">
                <path
   d="m 5508.83,495.518 35.84,25.89"
   style="fill:none"
   id="path11" />
            </g>
            <g
   transform="translate(0.333333)"
   id="g12">
                <path
   d="m 5544.67,521.408 -13.16,4.367"
   style="fill:none"
   id="path12" />
            </g>
            <g
   id="Ebene1">
            </g>
        </g>
    </g>
</svg>

<?xml version="1.0" encoding="UTF-8" standalone="no"?>
<!DOCTYPE svg PUBLIC "-//W3C//DTD SVG 1.1//EN" "http://www.w3.org/Graphics/SVG/1.1/DTD/svg11.dtd">
<svg width="100%" height="100%" viewBox="0 0 1000 1000" version="1.1" xmlns="http://www.w3.org/2000/svg" xmlns:xlink="http://www.w3.org/1999/xlink" xml:space="preserve" xmlns:serif="http://www.serif.com/" style="fill-rule:evenodd;clip-rule:evenodd;stroke-linejoin:round;stroke-miterlimit:2;">
    <g transform="matrix(1,0,0,1,-4832,0)">
        <g id="WM" transform="matrix(1,0,0,1,-0.333333,0)">
            <rect x="4832.33" y="0" width="1000" height="1000" style="fill:none;"/>
            <g transform="matrix(1,0,0,1,4828.23,-6.56838)">
                <path d="M60.422,232.606L475.029,232.606L475.029,770.534L59.538,770.534C59.538,770.534 20.199,697.68 5.613,629.532L85.175,629.532C85.175,629.532 66.168,575.53 67.494,494.199C68.82,412.869 86.501,372.646 86.501,372.646L4.729,372.646C4.729,372.646 27.271,283.956 60.422,232.606ZM284.58,569.005L284.58,620.023C284.58,620.023 278.468,658.181 242.493,662.413L45.693,662.413C45.693,662.413 58.037,706.262 80.134,740.313L465.202,740.313C465.202,740.313 459.596,703.343 472.498,660.409C472.498,660.409 406.498,641.673 373.932,563.328C374.98,563.113 375.947,562.897 376.823,562.678C395.129,558.101 409.876,553.016 409.876,553.016L474.965,525.048L474.965,470.686C474.965,470.686 397.435,441.347 379.501,440.482C379.476,440.482 379.055,440.452 373.597,439.995C373.94,439.471 374.133,439.207 374.133,439.207C374.133,439.207 398.601,369.905 469.796,342.79C469.796,342.79 463.331,290.571 463.666,262.118L80.722,262.118C80.722,262.118 50.261,319.024 45.909,342.456L239.879,342.456C239.879,342.456 272.864,341.744 284.58,382.959L284.58,435.194C264.903,439.334 228.523,453.624 226.304,502.754C225.922,511.197 226.796,518.592 228.617,525.07C226.482,518.616 224.914,511.033 224.337,502.165C221.478,458.246 252.925,446.025 252.925,446.025L252.925,385.99C249.113,376.461 239.879,372.172 239.879,372.172L130.472,372.172C84.408,525.073 130.948,630.419 130.948,630.419L239.879,630.419C252.086,627.56 254.354,612.79 254.354,612.79L254.354,558.472C254.354,558.472 246.368,554.829 238.602,544.492C251.211,560.029 270.811,566.396 284.58,569.005Z"/>
            </g>
            <g transform="matrix(1.25175,0,0,1.25757,4709.43,-126.361)">
                <path d="M173.75,620.4C159.472,580.995 151.685,538.492 151.685,494.184C151.685,449.727 159.524,407.086 173.895,367.569L209.906,367.569C194.265,406.211 185.654,448.411 185.654,492.598C185.654,537.844 194.683,581.008 211.043,620.4L173.75,620.4ZM251.252,620.4C233.001,581.91 222.795,538.923 222.795,493.586C222.795,448.562 232.861,405.855 250.876,367.569L269.003,367.569C249.806,405.631 238.998,448.596 238.998,494.054C238.998,539.457 249.78,582.372 268.932,620.4L251.252,620.4ZM313.044,684.279C364.965,740.974 439.744,776.574 522.809,776.574C679.449,776.574 806.621,649.981 806.621,494.054C806.621,338.127 679.449,211.534 522.809,211.534C439.812,211.534 365.088,247.075 313.171,303.69L291.592,303.69C346.639,237.594 429.81,195.455 522.808,195.455C688.389,195.455 822.82,329.043 822.82,493.586C822.82,658.129 688.389,791.717 522.808,791.717C430.184,791.717 347.308,749.917 292.257,684.279L313.044,684.279ZM246.206,684.279C307.086,770.96 408.094,827.698 522.311,827.698C708.117,827.698 858.968,677.545 858.968,492.598C858.968,307.651 708.117,157.498 522.311,157.498C406.881,157.498 304.941,215.448 244.279,303.69L204.348,303.69C269.201,195.66 387.5,123.305 522.565,123.305C727.258,123.305 893.444,289.49 893.444,494.184C893.444,698.878 727.258,865.063 522.565,865.063C387.333,865.063 268.91,792.53 204.108,684.279L246.206,684.279Z"/>
            </g>
            <g transform="matrix(1,0,0,1,0.333333,0)">
                <path d="M5308.88,401.742C5308.88,401.742 5287.37,295.992 5294.72,255.12C5302.07,214.248 5315,188.525 5363.37,182.994C5411.74,177.463 5429.14,222.422 5432.02,254.439C5434.9,286.455 5412.42,401.742 5412.42,401.742L5382.45,401.742C5382.45,401.742 5405.78,274.194 5400.25,254.439C5394.71,234.684 5393.83,216.762 5363.96,215.164C5334.09,213.567 5327.77,242.859 5326.5,255.12C5325.23,267.382 5336.13,372.613 5345.67,401.742L5308.88,401.742Z"/>
            </g>
            <g transform="matrix(1,0,0,-1,0.333333,989.135)">
                <path d="M5308.88,401.742C5308.88,401.742 5287.37,295.992 5294.72,255.12C5302.07,214.248 5315,188.525 5363.37,182.994C5411.74,177.463 5429.14,222.422 5432.02,254.439C5434.9,286.455 5412.42,401.742 5412.42,401.742L5382.45,401.742C5382.45,401.742 5405.78,274.194 5400.25,254.439C5394.71,234.684 5393.83,216.762 5363.96,215.164C5334.09,213.567 5327.77,242.859 5326.5,255.12C5325.23,267.382 5336.13,372.613 5345.67,401.742L5308.88,401.742Z"/>
            </g>
            <g transform="matrix(6.12323e-17,1,-1,6.12323e-17,5859.51,-4868.68)">
                <path d="M5308.88,401.742C5308.88,401.742 5287.37,295.992 5294.72,255.12C5302.07,214.248 5315,188.525 5363.37,182.994C5411.74,177.463 5429.14,222.422 5432.02,254.439C5434.9,286.455 5412.42,401.742 5412.42,401.742L5382.45,401.742C5382.45,401.742 5405.78,274.194 5400.25,254.439C5394.71,234.684 5393.83,216.762 5363.96,215.164C5334.09,213.567 5327.77,242.859 5326.5,255.12C5325.23,267.382 5336.13,372.613 5345.67,401.742L5308.88,401.742Z"/>
            </g>
            <g transform="matrix(-6.12323e-17,1,1,6.12323e-17,4866.2,-4867.73)">
                <path d="M5308.88,401.742C5308.88,401.742 5287.37,295.992 5294.72,255.12C5302.07,214.248 5315,188.525 5363.37,182.994C5411.74,177.463 5429.14,222.422 5432.02,254.439C5434.9,286.455 5412.42,401.742 5412.42,401.742L5382.45,401.742C5382.45,401.742 5405.78,274.194 5400.25,254.439C5394.71,234.684 5393.83,216.762 5363.96,215.164C5334.09,213.567 5327.77,242.859 5326.5,255.12C5325.23,267.382 5336.13,372.613 5345.67,401.742L5308.88,401.742Z"/>
            </g>
            <g transform="matrix(0.929883,0,0,0.919548,4802.39,-15.9039)">
                <path d="M784.375,589.056C770.854,663.716 712.018,722.686 637.427,736.406C631.344,692.313 623.435,654.964 623.435,654.964C602.756,662.347 585.634,654.72 585.634,654.72C584.66,661.989 576.863,695.89 570.997,736.435C496.602,722.819 437.849,664.198 424.038,589.871C446.434,586.616 490.131,579.614 503.751,572.761L503.726,572.751L503.751,572.748C503.751,572.748 496.209,555.434 503.51,534.522C503.51,534.522 467.397,526.701 424.432,520.579C438.928,447.261 497.235,389.612 570.897,376.088C576.692,415.019 584.058,447.135 585.003,454.186C585.003,454.186 602.125,446.56 622.804,453.942C622.804,453.942 630.311,418.495 636.322,375.899C710.834,389.13 769.834,447.474 784.04,521.647C740.874,527.778 704.504,535.654 704.504,535.654C711.804,556.566 704.263,573.88 704.263,573.88C704.596,573.926 704.985,573.986 705.429,574.061C715.862,576.866 781.706,588.581 784.375,589.056ZM603.686,487.786C567.051,487.786 537.307,517.917 537.307,555.03C537.307,592.143 567.051,622.275 603.686,622.275C640.322,622.275 670.066,592.143 670.066,555.03C670.066,517.917 640.322,487.786 603.686,487.786Z"/>
            </g>
            <g transform="matrix(1.11791,0,0,1.11791,4750.39,-58.4753)">
                <path d="M549.158,411.445C595.308,411.445 632.775,448.913 632.775,495.062C632.775,541.211 595.308,578.678 549.158,578.678C503.009,578.678 465.542,541.211 465.542,495.062C465.542,448.913 503.009,411.445 549.158,411.445ZM548.669,439.315C518.195,439.315 493.455,464.1 493.455,494.628C493.455,525.156 518.195,549.941 548.669,549.941C579.143,549.941 603.884,525.156 603.884,494.628C603.884,464.1 579.143,439.315 548.669,439.315Z"/>
            </g>
            <g transform="matrix(1,0,0,1,0.333333,0)">
                <path d="M5202.82,559.044C5202.82,559.044 5200.76,554.792 5201.13,554.379C5201.5,553.966 5205.63,555.039 5205.63,555.039L5202.82,559.044Z"/>
            </g>
            <g transform="matrix(1,0,0,1,0.333333,0)">
                <path d="M5267,477.737C5267,477.737 5269.43,478.505 5269.8,478.845C5270.18,479.186 5271.65,475.056 5271.65,475.056L5267.04,474.864L5267,477.737Z"/>
            </g>
            <g transform="matrix(1,0,0,1,0.333333,0)">
                <path d="M5508.83,495.518L5544.67,521.408" style="fill:none;"/>
            </g>
            <g transform="matrix(1,0,0,1,0.333333,0)">
                <path d="M5544.67,521.408L5531.51,525.775" style="fill:none;"/>
            </g>
            <g id="Ebene1">
            </g>
        </g>
    </g>
</svg>
